svg/set/WOE/U.svg

<?xml version="1.0" encoding="UTF-8"?>
<svg id="Layer_2" data-name="Layer 2" xmlns="http://www.w3.org/2000/svg" xmlns:xlink="http://www.w3.org/1999/xlink" viewBox="0 0 1080.37 635.88">
  <defs>
    <style>
      .cls-1, .cls-2 {
        fill-rule: evenodd;
        stroke-width: 0px;
      }

      .cls-2 {
        fill: url(#linear-gradient);
      }
    </style>
    <linearGradient id="linear-gradient" x1="-414.41" y1="859.88" x2="-413.41" y2="859.88" gradientTransform="translate(418045.75 451238.69) scale(1008.69 -524.42)" gradientUnits="userSpaceOnUse">
      <stop offset="0" stop-color="#626e77"/>
      <stop offset=".04" stop-color="#697780"/>
      <stop offset=".11" stop-color="#7d8e98"/>
      <stop offset=".2" stop-color="#9eb4c0"/>
      <stop offset=".2" stop-color="#a0b6c2"/>
      <stop offset=".2" stop-color="#a1b7c3"/>
      <stop offset=".29" stop-color="#adc6d4"/>
      <stop offset=".38" stop-color="#b5cede"/>
      <stop offset=".5" stop-color="#b7d1e1"/>
      <stop offset=".62" stop-color="#b5cede"/>
      <stop offset=".71" stop-color="#adc6d4"/>
      <stop offset=".8" stop-color="#a1b7c3"/>
      <stop offset=".8" stop-color="#a0b6c2"/>
      <stop offset=".85" stop-color="#8b9da8"/>
      <stop offset=".91" stop-color="#74838d"/>
      <stop offset=".96" stop-color="#67747d"/>
      <stop offset="1" stop-color="#626e77"/>
    </linearGradient>
  </defs>
  <g id="Layer_1-2" data-name="Layer 1">
    <g>
      <path class="cls-1" d="M540,474.74l-26.39-54.88c-20.93-43.5-48.96-81.52-84.24-113.98l-22.8-20.99,21.94-21.89c31.99-31.93,60.52-71.29,85.76-117.84l25.73-47.46v-.68l.19.35.18-.35v.68l25.74,47.46c25.25,46.55,53.76,85.91,85.75,117.84l21.94,21.89-22.8,20.99c-35.27,32.46-63.31,70.48-84.23,113.98l-26.4,54.88v.77l-.18-.38-.19.38v-.77h0ZM258.54,11.76c82.45,28.12,149.99,66.34,204.47,108.42l19.56,15.12-11.3,21.97c-24.72,48.06-56.9,90.25-96.66,126.5,64.26,59.66,112.64,123.29,140.74,191.65l2.22,5.42v155.03l-50.68-50.57c-81.3-81.11-175.45-132.97-282.22-156.07l-28.81-6.24,6.01-28.86c24.24-116.22,42.25-235.84,57.62-357.97L224.04,0l34.5,11.76h0ZM107.33,89.11c18.74,2.08,36.94,7.63,54.76,15.35l22,9.53-66.16,332.46c111.86,12.2,217.96,81.44,277.15,147.16-113.44-48.86-242.88-69.94-395.08-51.49L79.58,86.03l27.74,3.08ZM821.84,11.76l34.5-11.76,4.55,36.17c15.36,122.14,33.38,241.75,57.61,357.97l6.02,28.86-28.81,6.24c-106.78,23.1-200.92,74.96-282.23,156.07l-50.68,50.57v-155.03l2.23-5.42c28.08-68.36,76.48-131.99,140.72-191.65-39.74-36.25-71.93-78.44-96.65-126.5l-11.32-21.97,19.56-15.12c54.48-42.08,122.03-80.3,204.48-108.42h0ZM973.06,89.11l27.73-3.08,79.58,456.08c-152.2-18.44-281.63,2.63-395.06,51.49,59.2-65.71,165.29-134.95,277.15-147.16l-66.16-332.46,22-9.53c17.81-7.72,36-13.27,54.76-15.35h0Z"/>
      <path class="cls-2" d="M540.37,406.99c-22.57-46.92-52.84-87.94-90.88-122.95,33.88-33.82,64.15-75.42,90.88-124.7,26.74,49.28,57.01,90.89,90.89,124.7-38.05,35.02-68.32,76.03-90.89,122.95h0ZM248.95,39.88c78.98,26.93,143.71,63.49,195.9,103.81-28.12,54.65-66.58,101.2-115.52,139.48,73.28,62.92,128.41,130.21,158.53,203.56v77.57c-85.52-85.32-184.6-139.78-296.92-164.08,24.4-116.99,42.55-237.4,58.01-360.34h0ZM104.05,118.63c15.84,1.75,31.18,6.55,46.21,13.08l-68.02,341.84c77.41,2.9,143.51,25.58,202.32,61.04-77.76-24.73-159.94-35.54-248.53-26.16L104.05,118.63h0ZM831.79,39.88c15.47,122.94,33.61,243.35,58.01,360.34-112.31,24.3-211.39,78.76-296.92,164.08v-77.57c30.13-73.34,85.26-140.64,158.54-203.56-48.96-38.28-87.41-84.83-115.52-139.48,52.19-40.32,116.92-76.88,195.89-103.81h0ZM976.7,118.63l68.02,389.81c-88.6-9.38-170.78,1.43-248.53,26.16,58.8-35.46,124.91-58.14,202.32-61.04l-68.03-341.84c15.05-6.53,30.38-11.33,46.22-13.08h0Z"/>
    </g>
  </g>
</svg>

<?xml version="1.0" encoding="UTF-8" standalone="no"?>
<svg
   id="Layer_2"
   data-name="Layer 2"
   viewBox="0 0 1080.37 635.88"
   version="1.1"
   width="1080.37"
   height="635.88"
   xmlns="http://www.w3.org/2000/svg"
   xmlns:svg="http://www.w3.org/2000/svg">
  <defs
     id="defs17">
    <style
       id="style1">
      .cls-1, .cls-2 {
        fill-rule: evenodd;
        stroke-width: 0px;
      }

      .cls-2 {
        fill: url(#linear-gradient);
      }
    </style>
    <linearGradient
       id="linear-gradient"
       x1="-414.41"
       y1="859.88"
       x2="-413.41"
       y2="859.88"
       gradientTransform="matrix(1008.69,0,0,-524.42,418045.75,451238.69)"
       gradientUnits="userSpaceOnUse">
      <stop
         offset="0"
         stop-color="#626e77"
         id="stop1" />
      <stop
         offset=".04"
         stop-color="#697780"
         id="stop2" />
      <stop
         offset=".11"
         stop-color="#7d8e98"
         id="stop3" />
      <stop
         offset=".2"
         stop-color="#9eb4c0"
         id="stop4" />
      <stop
         offset=".2"
         stop-color="#a0b6c2"
         id="stop5" />
      <stop
         offset=".2"
         stop-color="#a1b7c3"
         id="stop6" />
      <stop
         offset=".29"
         stop-color="#adc6d4"
         id="stop7" />
      <stop
         offset=".38"
         stop-color="#b5cede"
         id="stop8" />
      <stop
         offset=".5"
         stop-color="#b7d1e1"
         id="stop9" />
      <stop
         offset=".62"
         stop-color="#b5cede"
         id="stop10" />
      <stop
         offset=".71"
         stop-color="#adc6d4"
         id="stop11" />
      <stop
         offset=".8"
         stop-color="#a1b7c3"
         id="stop12" />
      <stop
         offset=".8"
         stop-color="#a0b6c2"
         id="stop13" />
      <stop
         offset=".85"
         stop-color="#8b9da8"
         id="stop14" />
      <stop
         offset=".91"
         stop-color="#74838d"
         id="stop15" />
      <stop
         offset=".96"
         stop-color="#67747d"
         id="stop16" />
      <stop
         offset="1"
         stop-color="#626e77"
         id="stop17" />
    </linearGradient>
  </defs>
  <g
     id="Layer_1-2"
     data-name="Layer 1">
    <g
       id="g18">
      <path
         class="cls-1"
         d="M 540,474.74 513.61,419.86 C 492.68,376.36 464.65,338.34 429.37,305.88 L 406.57,284.89 428.51,263 c 31.99,-31.93 60.52,-71.29 85.76,-117.84 L 540,97.7 v -0.68 l 0.19,0.35 0.18,-0.35 v 0.68 l 25.74,47.46 c 25.25,46.55 53.76,85.91 85.75,117.84 l 21.94,21.89 -22.8,20.99 c -35.27,32.46 -63.31,70.48 -84.23,113.98 l -26.4,54.88 v 0.77 l -0.18,-0.38 -0.19,0.38 z M 258.54,11.76 c 82.45,28.12 149.99,66.34 204.47,108.42 l 19.56,15.12 -11.3,21.97 c -24.72,48.06 -56.9,90.25 -96.66,126.5 64.26,59.66 112.64,123.29 140.74,191.65 l 2.22,5.42 V 635.87 L 466.89,585.3 C 385.59,504.19 291.44,452.33 184.67,429.23 l -28.81,-6.24 6.01,-28.86 C 186.11,277.91 204.12,158.29 219.49,36.16 L 224.04,0 Z M 107.33,89.11 c 18.74,2.08 36.94,7.63 54.76,15.35 l 22,9.53 -66.16,332.46 c 111.86,12.2 217.96,81.44 277.15,147.16 C 281.64,544.75 152.2,523.67 0,542.12 L 79.58,86.03 107.32,89.11 Z M 821.84,11.76 856.34,0 l 4.55,36.17 c 15.36,122.14 33.38,241.75 57.61,357.97 l 6.02,28.86 -28.81,6.24 C 788.93,452.34 694.79,504.2 613.48,585.31 L 562.8,635.88 V 480.85 l 2.23,-5.42 C 593.11,407.07 641.51,343.44 705.75,283.78 666.01,247.53 633.82,205.34 609.1,157.28 l -11.32,-21.97 19.56,-15.12 C 671.82,78.11 739.37,39.89 821.82,11.77 v 0 z m 151.22,77.35 27.73,-3.08 79.58,456.08 C 928.17,523.67 798.74,544.74 685.31,593.6 744.51,527.89 850.6,458.65 962.46,446.44 l -66.16,-332.46 22,-9.53 c 17.81,-7.72 36,-13.27 54.76,-15.35 v 0 z"
         id="path17" />
      <path
         class="cls-2"
         d="m 540.37,406.99 c -22.57,-46.92 -52.84,-87.94 -90.88,-122.95 33.88,-33.82 64.15,-75.42 90.88,-124.7 26.74,49.28 57.01,90.89 90.89,124.7 -38.05,35.02 -68.32,76.03 -90.89,122.95 z M 248.95,39.88 c 78.98,26.93 143.71,63.49 195.9,103.81 -28.12,54.65 -66.58,101.2 -115.52,139.48 73.28,62.92 128.41,130.21 158.53,203.56 V 564.3 C 402.34,478.98 303.26,424.52 190.94,400.22 215.34,283.23 233.49,162.82 248.95,39.88 Z m -144.9,78.75 c 15.84,1.75 31.18,6.55 46.21,13.08 L 82.24,473.55 c 77.41,2.9 143.51,25.58 202.32,61.04 C 206.8,509.86 124.62,499.05 36.03,508.43 Z M 831.79,39.88 C 847.26,162.82 865.4,283.23 889.8,400.22 777.49,424.52 678.41,478.98 592.88,564.3 V 486.73 C 623.01,413.39 678.14,346.09 751.42,283.17 702.46,244.89 664.01,198.34 635.9,143.69 688.09,103.37 752.82,66.81 831.79,39.88 Z m 144.91,78.75 68.02,389.81 c -88.6,-9.38 -170.78,1.43 -248.53,26.16 58.8,-35.46 124.91,-58.14 202.32,-61.04 L 930.48,131.72 c 15.05,-6.53 30.38,-11.33 46.22,-13.08 v 0 z"
         id="path18"
         style="fill:url(#linear-gradient)" />
    </g>
  </g>
</svg>
